X:1
T:Kyrie
T:Orlando di Lasso
T: Copyright © 2006 by The Choral Public Domain Library (www.cpdl.org) This edition can be fully distributed, duplicated, performed, and recorded.
T:Missa secundi toni
T:Kyrie
T: Copyright © 2006 by The Choral Public Domain Library (www.cpdl.org) This edition can be fully distributed, duplicated, performed, and recorded.
C:Orlando di Lasso
Z:Copyright © 2006 by The Choral Public Domain Library (www.cpdl.org)
Z:This edition can be fully distributed, duplicated, performed, and recorded.
%%score [ 1 2 3 4 ]
L:1/8
M:4/4
K:G
V:1 treble nm="SOPRANO" snm="S."
V:2 treble nm="ALTO" snm="A."
V:3 treble-8 transpose=-12 nm="TENOR" snm="T."
V:4 bass nm="BASS" snm="B."
V:1
 z8 | z4 B3 c | d2 B2 c4 | B4 A2 B2- | BA A4 ^G2 | A8 || A2 A2 c3 d | e2 e2 A4- | A4 z2 A2- | %9
w: |Ky- ri-|e e- lei-|* son, e-|* * * lei-|son.|Chri- ste e- *|* lei- son,|_ Chri-|
 A2 ^G2 ABcd | e8 | =f8 | e8 || z4 B3 c | d2 B2 c3 B/A/ | G2 A2 d2 e2 | A2 e4 e2 | d2 e2 ^c2 d2 | %18
w: * ste e- * * *||lei-|son.|Ky- ri-|e e- lei- * *||son. Ky- ri-|e e- lei- *|
 B4 z4 | B3 c d2 B2 | A2 G3 E A2 | ^G2 A4 G2 | A8 |] %23
w: son,|Ky- ri- e, _|_ Ky- ri- e|e- lei- *|son.|
V:2
 z8 | E3 F G2 E2 | F2 ^G2 A E2 F | GFDE F2 G2 | E8 | ^C8 || z4 A,2 A,2 | C3 DE=F E2- | E2 A,2 A,4 | %9
w: |Ky- ri- e e-|lei- * son, Ky- ri-|e _ _ _ _ e-|lei-|son.|Chri- ste|e- * * * *|* * lei-|
 B,4 C2 E2- | E2 E2 A4- | A4 A4 | ^G8 || E3 F G2 E2 | F2 G2 A2 E2- | E2 F2 G4 | F2 G2 G4 | %17
w: * son, Chri-|* ste e-|* lei-|son.|Ky- ri- e e-|lei- * son, Ky-|* ri- e|e- lei- son.|
 G3 F E2 F2 | G4 D2 G2- | GG F2 B2 G2 | F2 E4 E2 | E2 D2 E4 | E8 |] %23
w: Ky- ri- e e-|lei- son, Ky-|* ri- e e- lei-|son, Ky- ri-|e e- lei-|son.|
V:3
 z8 | z8 | z8 | B3 c d2 B2 | c4 B4 | A8 || z8 | z4 A2 A2 | c4 d4 | e8 | A2 A2 c4 | c4 d4 | B8 || %13
w: |||Ky- ri- e e-|lei- *|son.||Chri- ste|e- lei-|son,|Chri- ste- e-|lei- *|son.|
 z8 | z8 | z4 B3 c | d2 B2 c4 | B4 A4 | z4 B3 c | d4 B3 c | d2 B2 c4 | B2 A2 B4 | A8 |] %23
w: ||Ky- ri-|e e- lei-|* son,|Ky- ri-|e, Ky- ri-|e e- lei-||son.|
V:4
 B,3 C D2 B,2 | C2 A,2 E,4 | z2 E,2 A,4 | G,4 D,2 G,2 | A,4 E,4 | A,,8 || z8 | A,2 A,2 C3 B, | %8
w: Ky- ri- e e-|lei- * son,|Ky- ri-|* e e-|lei- *|son.||Chri- ste e- *|
 A,G,=F,E, F,2 F,2 | E,4 A,2 A,2 | C3 B, A,3 G, | =F,3 E, D,2 D,2 | E,8 || z8 | z4 A,3 B, | %15
w: * * * * * lei-|son, Chri- ste|e- * * *|* * * lei-|son.||Ky- ri-|
 C2 A,2 G,2 E,2 | D,2 E,2 C,D,E,F, | G,2 E,2 z2 D,2 | G,2 E,2 G,3 A, | B,2 B,2 G,2 G,2 | %20
w: e e- lei- *|son, e- lei- * * *|* son, e-|lei- son, Ky- ri-|e e- lei- son,|
 D,2 E,2 C,2 A,,2 | E,2 =F,2 E,4 | A,,8 |] %23
w: Ky- ri- e e-|lei- * *|son.|

